images/types-type-2-3.svg

<svg width="20" height="21" viewBox="0 0 20 21" fill="none" xmlns="http://www.w3.org/2000/svg">
<g clip-path="url(#clip0_0_375)">
<path d="M10.0001 0.5C15.5231 0.5 20.0001 4.97696 20.0001 10.5C20.0001 16.023 15.5231 20.5 10.0001 20.5L7.39136 10.5L10.0001 0.5Z" fill="#354A67"/>
<path d="M10 20.5C4.47696 20.5 0 16.023 0 10.5C0 4.97696 4.47696 0.5 10 0.5V20.5Z" fill="#466289"/>
<path d="M10.0001 18.7611L9.13049 10.0654L18.2609 10.5002C18.2609 15.0554 14.5553 18.7611 10.0001 18.7611Z" fill="#BEC8D6"/>
<path d="M10.0001 2.23926C14.5553 2.23926 18.2609 5.94491 18.2609 10.5001H9.13049L10.0001 2.23926Z" fill="#DAE0E7"/>
<path d="M10 10.5001V18.761C5.44479 18.761 1.73914 15.0554 1.73914 10.5001L5.86957 9.1958L10 10.5001Z" fill="#DAE0E7"/>
<path d="M10 2.23926V10.5001H1.73914C1.73914 5.94491 5.44479 2.23926 10 2.23926Z" fill="white"/>
<path d="M6.60912 5.93096L7.73865 5.27881L7.0865 4.14928L5.95697 4.80143L6.60912 5.93096Z" fill="#DAE0E7"/>
<path d="M4.779 8.2389L5.43115 7.10938L4.30163 6.45722L3.64947 7.58675L4.779 8.2389Z" fill="#DAE0E7"/>
<path d="M5.43096 13.8908L4.77881 12.7612L3.64928 13.4134L4.30143 14.5429L5.43096 13.8908Z" fill="#BEC8D6"/>
<path d="M7.7389 15.721L6.60938 15.0688L5.95722 16.1984L7.08675 16.8505L7.7389 15.721Z" fill="#BEC8D6"/>
<path d="M13.3908 15.069L12.2612 15.7212L12.9134 16.8507L14.0429 16.1986L13.3908 15.069Z" fill="#A3B1C4"/>
<path d="M15.221 12.7611L14.5688 13.8906L15.6984 14.5428L16.3505 13.4132L15.221 12.7611Z" fill="#A3B1C4"/>
<path d="M14.4887 5.11963L10.0309 9.5775V11.4221L15.411 6.04198L14.4887 5.11963Z" fill="#354A67"/>
<path d="M7.87885 7.42578L6.95654 8.34809L10.0309 11.4225V9.57787L7.87885 7.42578Z" fill="#466289"/>
<path d="M10.6522 16.1523H10V17.4567H10.6522V16.1523Z" fill="#A3B1C4"/>
<path d="M10.6522 3.54346H10V4.8478H10.6522V3.54346Z" fill="#BEC8D6"/>
<path d="M9.99995 16.1523H9.34778V17.4567H9.99995V16.1523Z" fill="#BEC8D6"/>
<path d="M9.99995 3.54346H9.34778V4.8478H9.99995V3.54346Z" fill="#DAE0E7"/>
<path d="M16.9566 10.5H15.6522V11.1522H16.9566V10.5Z" fill="#A3B1C4"/>
<path d="M16.9566 9.84766H15.6522V10.4998H16.9566V9.84766Z" fill="#BEC8D6"/>
<path d="M4.3478 10.5H3.04346V11.1522H4.3478V10.5Z" fill="#BEC8D6"/>
<path d="M4.3478 9.84766H3.04346V10.4998H4.3478V9.84766Z" fill="#DAE0E7"/>
</g>
<defs>
<clipPath id="clip0_0_375">
<rect width="20" height="20" fill="white" transform="translate(0 0.5)"/>
</clipPath>
</defs>
</svg>

<svg width="20" height="21" fill="none" xmlns="http://www.w3.org/2000/svg"><g clip-path="url(#clip0_0_375)"><path d="M10 .5c5.523 0 10 4.477 10 10s-4.477 10-10 10l-2.609-10 2.61-10z" fill="#354A67"/><path d="M10 20.5c-5.523 0-10-4.477-10-10S4.477.5 10 .5v20z" fill="#466289"/><path d="M10 18.761l-.87-8.696 9.13.435c0 4.555-3.705 8.261-8.26 8.261z" fill="#BEC8D6"/><path d="M10 2.24c4.555 0 8.26 3.705 8.26 8.26H9.13L10 2.24z" fill="#DAE0E7"/><path d="M10 10.5v8.261c-4.555 0-8.26-3.706-8.26-8.26l4.13-1.305L10 10.5z" fill="#DAE0E7"/><path d="M10 2.24v8.26H1.74c0-4.555 3.705-8.26 8.26-8.26z" fill="#fff"/><path d="M6.61 5.931l1.129-.652-.652-1.13-1.13.652.652 1.13zM4.779 8.239l.652-1.13-1.13-.652-.652 1.13 1.13.652z" fill="#DAE0E7"/><path d="M5.431 13.89l-.652-1.129-1.13.652.652 1.13 1.13-.652zm2.308 1.831l-1.13-.652-.652 1.13 1.13.651.652-1.129z" fill="#BEC8D6"/><path d="M13.39 15.069l-1.129.652.652 1.13 1.13-.652-.652-1.13zm1.831-2.308l-.652 1.13 1.13.652.652-1.13-1.13-.652z" fill="#A3B1C4"/><path d="M14.489 5.12L10.03 9.578v1.844l5.38-5.38-.922-.922z" fill="#354A67"/><path d="M7.879 7.426l-.922.922 3.074 3.074V9.579L7.879 7.426z" fill="#466289"/><path d="M10.652 16.152H10v1.305h.652v-1.305z" fill="#A3B1C4"/><path d="M10.652 3.543H10v1.305h.652V3.543zM10 16.152h-.652v1.305H10v-1.305z" fill="#BEC8D6"/><path d="M10 3.543h-.652v1.305H10V3.543z" fill="#DAE0E7"/><path d="M16.957 10.5h-1.305v.652h1.305V10.5z" fill="#A3B1C4"/><path d="M16.957 9.848h-1.305v.652h1.305v-.652zM4.348 10.5H3.043v.652h1.305V10.5z" fill="#BEC8D6"/><path d="M4.348 9.848H3.043v.652h1.305v-.652z" fill="#DAE0E7"/></g><defs><clipPath id="clip0_0_375"><path fill="#fff" transform="translate(0 .5)" d="M0 0h20v20H0z"/></clipPath></defs></svg>
